packages/ui-icons/src/Service-logos/24/Whatsup.svg

<?xml version="1.0" encoding="UTF-8"?>
<svg viewBox="0 0 32 32" version="1.1" xmlns="http://www.w3.org/2000/svg" xmlns:xlink="http://www.w3.org/1999/xlink">
    <!-- Generator: Sketch 48.2 (47327) - http://www.bohemiancoding.com/sketch -->
    <title>logo/24/whatsup</title>
    <desc>Created with Sketch.</desc>
    <defs></defs>
    <g id="Icons" stroke="none" stroke-width="1" fill="none" fill-rule="evenodd">
        <g id="logo/24/whatsup">
            <g id="Group-9" transform="translate(4.000000, 4.000000)">
                <g id="whatsapp">
                    <circle id="Oval-2" fill="#25D366" cx="12" cy="12" r="12"></circle>
                    <path d="M15.2071667,13.3895 C15.0315833,13.302 14.1764167,12.88375 14.0171667,12.826 C13.8579167,12.7670833 13.74125,12.7385 13.6245833,12.9135 C13.5096667,13.0855833 13.1748333,13.4758333 13.0739167,13.5913333 C12.9718333,13.7050833 12.8703333,13.7138333 12.6970833,13.6350833 C12.5220833,13.5475833 11.9603333,13.3638333 11.2953333,12.7688333 C10.7773333,12.3050833 10.4296667,11.7363333 10.327,11.5613333 C10.2255,11.3863333 10.3159167,11.2900833 10.4028333,11.2025833 C10.4821667,11.1238333 10.5784167,11.0013333 10.6659167,10.8975 C10.7510833,10.7919167 10.7790833,10.7219167 10.8391667,10.6081667 C10.8975,10.4856667 10.86775,10.3894167 10.8245833,10.3025 C10.7808333,10.215 10.4325833,9.3575 10.28675,9.01566667 C10.14675,8.675 10.0026667,8.71816667 9.89475,8.71816667 C9.79441667,8.70941667 9.67833333,8.70941667 9.56166667,8.70941667 C9.445,8.70941667 9.25658333,8.75258333 9.09675,8.91883333 C8.9375,9.09383333 8.48716667,9.51383333 8.48716667,10.3625833 C8.48716667,11.2113333 9.11133333,12.0338333 9.19825,12.1563333 C9.28516667,12.2700833 10.4261667,14.0200833 12.17325,14.7725833 C12.58975,14.9475833 12.9140833,15.0525833 13.16725,15.1395 C13.58375,15.2719167 13.9635,15.25325 14.2639167,15.2100833 C14.59875,15.157 15.2946667,14.7895 15.4399167,14.37825 C15.5886667,13.967 15.5886667,13.62575 15.5449167,13.547 C15.50175,13.46825 15.3874167,13.4245 15.2124167,13.34575 M12.0355833,17.6875 L12.02625,17.6875 C10.99375,17.6875 9.97058333,17.4075 9.0775,16.8825 L8.8675,16.7576667 L6.68,17.3264167 L7.26625,15.2001667 L7.12683333,14.9814167 C6.54933333,14.0620833 6.2425,13.0033333 6.2425,11.9130833 C6.2425,8.73683333 8.84125,6.14683333 12.042,6.14683333 C13.5901667,6.14683333 15.04325,6.75058333 16.1375833,7.84433333 C17.2313333,8.92875 17.8345,10.3818333 17.8345,11.9218333 C17.8321667,15.0975 15.2328333,17.6880833 12.0390833,17.6880833 M16.97,7.01191667 C15.64,5.72625 13.89,5 12.02625,5 C8.18675,5 5.06066667,8.1115 5.05891667,11.9375833 C5.05891667,13.16025 5.37916667,14.3525833 5.98933333,15.4055 L5,19 L8.69541667,18.0363333 C9.71391667,18.5864167 10.8595833,18.8786667 12.02625,18.8804167 L12.02975,18.8804167 C15.871,18.8804167 18.99825,15.76775 19,11.9410833 C19,10.0884167 18.2766667,8.34483333 16.96125,7.03466667" id="Shape" fill="#FFFFFF" fill-rule="nonzero"></path>
                </g>
            </g>
        </g>
    </g>
</svg>

<svg viewBox="0 0 32 32" xmlns="http://www.w3.org/2000/svg"><g transform="translate(4 4)" fill="none" fill-rule="evenodd"><circle fill="#25D366" cx="12" cy="12" r="12"/><path d="M15.207 13.39c-.175-.088-1.03-.506-1.19-.564-.16-.059-.276-.088-.392.088-.115.172-.45.562-.551.677-.102.114-.204.123-.377.044-.175-.087-.737-.271-1.402-.866a5.292 5.292 0 0 1-.968-1.208c-.101-.175-.011-.27.076-.358.08-.08.175-.202.263-.305.085-.106.113-.176.173-.29.059-.122.029-.219-.014-.306-.044-.087-.392-.944-.538-1.286-.14-.341-.284-.298-.392-.298-.1-.009-.217-.009-.333-.009a.658.658 0 0 0-.465.21c-.16.175-.61.595-.61 1.444 0 .848.624 1.67.711 1.793.087.114 1.228 1.864 2.975 2.617.417.175.741.28.994.367.417.132.796.113 1.097.07.335-.053 1.03-.42 1.176-.832.149-.411.149-.752.105-.831-.043-.079-.158-.123-.333-.201m-3.176 4.341h-.01a5.835 5.835 0 0 1-2.948-.805l-.21-.124-2.188.568.586-2.126-.14-.219a5.757 5.757 0 0 1-.884-3.068c0-3.176 2.6-5.766 5.8-5.766 1.548 0 3.001.604 4.096 1.697a5.71 5.71 0 0 1 1.696 4.078c-.002 3.175-2.601 5.766-5.795 5.766M16.97 7.012A7.083 7.083 0 0 0 12.026 5c-3.84 0-6.965 3.111-6.967 6.938 0 1.222.32 2.415.93 3.467L5 19l3.695-.964a7.036 7.036 0 0 0 3.331.844h.004c3.841 0 6.968-3.112 6.97-6.939a6.88 6.88 0 0 0-2.039-4.906" fill="#FFF" fill-rule="nonzero"/></g></svg>
